X:1
T:Psalm 87
T:V 4
L:1/4
M:18/4
I:linebreak $
K:C
V:1 treble nm="Pipe Organ" snm="Org."
V:1
 F2 D2 G2 F F G A _B A G2 F3 z |$[M:16/4] _B2 c c d2 c2 A B G G F3 z |$ %2
w: Hul al- mal, nou tot nu- we heil ver- ko- re,|sal kom, selfs uit die al- ler- ver- ste land.|
 F2 G2 A2 F F G _B B A B3 z |$[M:18/4] _B2 G F B2 A2 F G A B G2 F4 |] %4
w: Hul sien God hou die moe- der- stad in stand|en ju- bel: Die en die is daar ge- bo- re!|

